X:1
T:Title
%%score { ( 1 4 ) | ( 2 3 ) }
L:1/8
M:4/4
K:Bb
V:1 treble nm="Grand Piano"
V:4 treble 
V:2 bass 
V:3 bass 
V:1
 z4 z2[Q:1/4=108] [DF]2 | [DF]3 [DF] [EG][DF][B,D][DF] | [EG]2 [GB]4 z2 | F4 G2 F2 | D4 z2 [DF]2 | %5
 [DF]3 [DF] [EG][DF][B,D][DF] | [EG]2 [GB]4 [DB]2 | c3 c dcBc | [Fd]2 [DB]4 z2 | %9
 [FA]4 [CGB]2 [B,=EG]2 | [A,F]6 z2 | [B,DF]4 [B,EG]2 [B,DF]2 | D2- [DB]4 z2 | c4 F4 | [Fd]6 z2 | %15
 [Fd]3 [_Ad] [Ge][Fd][Fc][FB] | [Ec]2 [GB]2 [FA]2 G2 | F2 B2 d3 c | [Fd]6 z2 | %19
 [Fd]3 [_Ad] [Ge][Fd][Fc][FB] |[M:19/16] [Ec]-<[Ec][GB]-<[GB]G/-G/-G/-G/-G/-G-<GG | %21
[M:4/4] F2 B2 d3 c |[M:3/4] [DB]6 |] %23
V:2
 z4 z2 [B,,B,]2 | [B,,B,]3 [B,,B,] [B,,B,][B,,B,][B,,F,][B,,B,] | [E,B,]2 [E,B,]4 z2 | %3
 [F,A,E]4 [F,B,E]2 [F,A,C]2 | [B,,B,]4 z2 [B,,B,]2 | %5
 [B,,B,]3 [B,,B,] [B,,B,][B,,B,][B,,F,][B,,B,] | [E,B,]2 [E,B,]4 [B,,B,]2 | %7
 [F,A,F]3 [F,A,F] [F,B,F][F,A,E][F,B,D][F,A,F] | [B,,B,]2 [B,,F,]4 z2 | F,2 z2 z4 | F,6 z2 | %11
 B,,4 B,,2 B,,2 | z2 F,4 z2 | [F,A,F]4 [F,A,]4 | [B,,B,]6 z2 | %15
 [B,,B,]3 [B,,B,] [B,,B,][B,,B,][C,A,][D,B,] | [E,G,]2 [E,B,]2 [E,B,]2 [E,B,E]2 | %17
 [F,B,D]2 [F,D]2 [F,B,F]3 [F,A,F] | [B,,B,]6 z2 | [B,,B,]3 [B,,B,] [B,,B,][B,,B,][B,,A,][D,B,] | %20
[M:19/16] [E,G,]-<[E,G,][E,B,]-<[E,B,][E,B,E]/-[E,B,E]/-[E,B,E]/-[E,B,E]/-[E,B,E]/-[E,B,E]-<[E,B,E][E,B,E] | %21
[M:4/4] [F,B,D]2 [F,D]2 [F,B,F]3 [F,A,E] |[M:3/4] [B,,B,]6 |] %23
V:3
 x8 | x8 | x8 | x8 | x8 | x8 | x8 | x8 | x8 | C,2- [C,C]2 C,2 C,2 | x8 | x8 | B,,4 z4 | x8 | x8 | %15
 x8 | x8 | x8 | x8 | x8 |[M:19/16] x19/2 |[M:4/4] x8 |[M:3/4] x6 |] %23
V:4
 x8 | x8 | x8 | x8 | x8 | x8 | x8 | x8 | x8 | x8 | x8 | x8 | [B,F]2 z2 z4 | x8 | x8 | x8 | x8 | %17
 x8 | x8 | x8 |[M:19/16] x19/2 |[M:4/4] x8 |[M:3/4] x6 |] %23

